brandFactory_export/2.Regular/Notas_2Regular.svg

<?xml version="1.0" encoding="UTF-8"?>
<svg width="24px" height="24px" viewBox="0 0 24 24" version="1.1" xmlns="http://www.w3.org/2000/svg" xmlns:xlink="http://www.w3.org/1999/xlink">
    <title>2.Regular/Notas_2Regular</title>
    <g id="Symbols" stroke="none" stroke-width="1" fill="none" fill-rule="evenodd">
        <g id="2.Regular/Notas_2Regular" fill="#5CB615" fill-rule="nonzero">
            <path d="M20.3193277,21.9697479 L20.3193277,8.24201681 L17.5798319,8.24201681 C16.3798319,8.24201681 15.3546218,7.84537815 14.5848739,7.09243697 C13.8252101,6.34621849 13.4151261,5.31092437 13.4151261,4.1210084 L13.4151261,1.45210084 L5.68067227,1.45210084 C5.59663866,1.45210084 5.46218487,1.58655462 5.45210084,1.65378151 L5.45210084,21.9697479 C5.45210084,22.0369748 5.56638655,22.1747899 5.68067227,22.1747899 L20.0806723,22.1747899 C20.205042,22.1714286 20.3193277,22.0571429 20.3193277,21.9697479 Z M19.7310924,6.78991597 L14.8436975,1.98319328 L14.8436975,4.1210084 C14.8436975,4.90420168 15.0991597,5.58319328 15.5865546,6.05714286 C16.0705882,6.53109244 16.7663866,6.79327731 17.5831933,6.79327731 L19.7310924,6.79327731 L19.7310924,6.78991597 Z M21.4319328,6.45378151 C21.6302521,6.64537815 21.7445378,6.91764706 21.7445378,7.19663866 L21.7445378,21.9697479 C21.7445378,22.8705882 20.9848739,23.6235294 20.0806723,23.6235294 L5.68067227,23.6235294 C4.79663866,23.6235294 4.02689076,22.8470588 4.02689076,21.9697479 L4.02689076,1.65378151 C4.02689076,0.793277311 4.81680672,0 5.68067227,0 L14.4504202,0 C14.7260504,0 14.9815126,0.104201681 15.1731092,0.299159664 L21.4319328,6.45378151 Z M17.512605,13.5630252 C17.7310924,13.3411765 17.8453782,13.0890756 17.8453782,12.8 C17.8453782,12.5109244 17.7210084,12.2016807 17.512605,11.9966387 C17.3142857,11.794958 17.0453782,11.6672269 16.7697479,11.6571429 C16.5512605,11.6369748 16.2453782,11.697479 15.9596639,11.9865546 C15.6537815,12.2957983 11.0252101,16.4571429 10.5579832,16.8705882 L9.77815126,19.2302521 L12.1647059,18.4 C15.3344538,15.5462185 17.3344538,13.7378151 17.512605,13.5630252 Z M18.5210084,10.9613445 C18.994958,11.4453782 19.2739496,12.1310924 19.2739496,12.8 C19.2739496,13.4857143 19.0084034,14.107563 18.5109244,14.5983193 C18.2554622,14.8504202 15.4386555,17.394958 13.1193277,19.4823529 L13.0352941,19.5596639 C12.9008403,19.6773109 12.7596639,19.7613445 12.5983193,19.8117647 L9.88571429,20.7294118 C9.75462185,20.7697479 9.62016807,20.7865546 9.49579832,20.7865546 C9.45882353,20.7865546 9.41848739,20.7865546 9.39159664,20.7764706 C9.37142857,20.7865546 9.35462185,20.7865546 9.33445378,20.7865546 L7.57647059,20.7865546 C7.18655462,20.7865546 6.86386555,20.4571429 6.86386555,20.0605042 C6.86386555,19.6638655 7.18655462,19.3344538 7.57647059,19.3344538 L8.27226891,19.3344538 C8.28235294,19.2672269 8.29243697,19.189916 8.31932773,19.1226891 L8.66218487,18.0672269 L7.57647059,18.0672269 C7.18655462,18.0672269 6.86386555,17.7378151 6.86386555,17.3411765 C6.86386555,16.9344538 7.18655462,16.6151261 7.57647059,16.6151261 L9.13613445,16.6151261 L9.22016807,16.3630252 C9.29747899,16.1512605 9.41848739,15.9563025 9.58319328,15.8117647 L10.097479,15.3478992 L7.57647059,15.3478992 C7.18655462,15.3478992 6.86386555,15.0184874 6.86386555,14.6218487 C6.86386555,14.2151261 7.18655462,13.8957983 7.57647059,13.8957983 L11.7142857,13.8957983 C12.2285714,13.4420168 12.702521,13.005042 13.1394958,12.6184874 L7.57647059,12.6184874 C7.18655462,12.6184874 6.86386555,12.2991597 6.86386555,11.892437 C6.86386555,11.4957983 7.18655462,11.1663866 7.57647059,11.1663866 L14.7361345,11.1663866 C14.8504202,11.0487395 14.9277311,10.9815126 14.9546218,10.9546218 C16.0773109,9.82857143 17.6470588,10.0705882 18.5210084,10.9613445 L18.5210084,10.9613445 Z" id="Notas_2Regular"></path>
        </g>
    </g>
</svg>

<svg width="24" height="24" viewBox="0 0 24 24" xmlns="http://www.w3.org/2000/svg"><path d="M20.32 21.97V8.242h-2.74c-1.2 0-2.225-.397-2.995-1.15-.76-.746-1.17-1.781-1.17-2.971V1.452H5.681c-.084 0-.219.135-.229.202V21.97c0 .067.114.205.229.205h14.4c.124-.004.238-.118.238-.205zM19.73 6.79l-4.887-4.807v2.138c0 .783.255 1.462.743 1.936.484.474 1.18.736 1.996.736h2.148V6.79zm1.7-.336c.2.191.314.464.314.743V21.97c0 .9-.76 1.654-1.664 1.654H5.68c-.884 0-1.654-.777-1.654-1.654V1.654C4.027.794 4.817 0 5.68 0h8.77a1 1 0 01.722.3l6.259 6.154zm-3.918 7.109c.218-.222.332-.474.332-.763 0-.29-.124-.598-.332-.803a1.116 1.116 0 00-.743-.34c-.219-.02-.525.04-.81.33-.306.309-4.935 4.47-5.402 4.884l-.78 2.36 2.387-.831c3.17-2.854 5.17-4.662 5.348-4.837zm1.008-2.602c.474.484.753 1.17.753 1.839 0 .686-.266 1.308-.763 1.798-.256.252-3.072 2.797-5.392 4.884l-.084.078a1.197 1.197 0 01-.437.252l-2.712.917c-.131.04-.266.058-.39.058-.037 0-.078 0-.104-.01-.02.01-.037.01-.058.01H7.576a.725.725 0 01-.712-.726c0-.397.323-.727.712-.727h.696c.01-.067.02-.144.047-.211l.343-1.056H7.576a.725.725 0 01-.712-.726c0-.407.323-.726.712-.726h1.56l.084-.252c.077-.212.198-.407.363-.551l.514-.464h-2.52a.725.725 0 01-.713-.726c0-.407.323-.726.712-.726h4.138c.515-.454.989-.891 1.425-1.278H7.576a.718.718 0 01-.712-.726c0-.396.323-.726.712-.726h7.16c.114-.117.192-.184.219-.211 1.122-1.126 2.692-.884 3.566.006z" fill="#5CB615" fill-rule="nonzero"/></svg>
